dist/static/anima-logo.svg

<svg width="163" height="267" viewBox="0 0 163 267" fill="none" xmlns="http://www.w3.org/2000/svg">
<g filter="url(#filter0_d_2_54)">
<rect x="17.6992" y="162.253" width="122.774" height="37.5843" fill="#B1060E"/>
</g>
<g filter="url(#filter1_b_2_54)">
<path fill-rule="evenodd" clip-rule="evenodd" d="M1.24616 259C15.4921 158.949 25.4283 102.11 45.797 2.01045L82.5812 1.98718C64.9402 101.17 56.0562 157.794 42.9178 254.984C27.9972 255.822 13.984 257.19 1.24616 259Z" fill="#B1060E"/>
<path d="M45.797 2.01045L45.7967 1.51045L45.3884 1.51071L45.307 1.91075L45.797 2.01045ZM1.24616 259L0.751153 258.93L0.657296 259.589L1.31649 259.495L1.24616 259ZM82.5812 1.98718L83.0734 2.07474L83.178 1.48681L82.5809 1.48718L82.5812 1.98718ZM42.9178 254.984L42.9458 255.483L43.358 255.46L43.4133 255.051L42.9178 254.984ZM45.307 1.91075C24.9365 102.019 14.9986 158.868 0.751153 258.93L1.74117 259.07C15.9857 159.03 25.9201 102.2 46.2869 2.11015L45.307 1.91075ZM82.5809 1.48718L45.7967 1.51045L45.7973 2.51045L82.5815 2.48718L82.5809 1.48718ZM43.4133 255.051C56.5508 157.868 65.4336 101.251 83.0734 2.07474L82.0889 1.89963C64.4467 101.089 55.5617 157.72 42.4223 254.917L43.4133 255.051ZM1.31649 259.495C14.0389 257.687 28.0379 256.32 42.9458 255.483L42.8898 254.485C27.9566 255.323 13.9292 256.693 1.17583 258.505L1.31649 259.495Z" fill="#B0060E"/>
</g>
<g filter="url(#filter2_ddd_2_54)">
<path fill-rule="evenodd" clip-rule="evenodd" d="M128.48 78.8139C123.948 55.2895 119.142 30.3406 114.027 2.00806L73.0569 2.00814C90.2885 100.695 99.8195 156.806 112.789 253.982C128.839 254.755 143.979 256.13 157.738 258C149.319 186.998 139.748 137.31 128.48 78.8139Z" fill="#E60814"/>
<path d="M114.027 2.00806L114.519 1.91921L114.445 1.50806L114.027 1.50806V2.00806ZM128.48 78.8139L127.989 78.9085L128.48 78.8139ZM73.0569 2.00814L73.0569 1.50814L72.462 1.50814L72.5643 2.09414L73.0569 2.00814ZM112.789 253.982L112.293 254.048L112.348 254.461L112.765 254.481L112.789 253.982ZM157.738 258L157.671 258.495L158.311 258.582L158.235 257.941L157.738 258ZM113.535 2.0969C118.651 30.4327 123.457 55.3842 127.989 78.9085L128.971 78.7194C124.439 55.1948 119.634 30.2485 114.519 1.91921L113.535 2.0969ZM73.0569 2.50814L114.027 2.50806L114.027 1.50806L73.0569 1.50814L73.0569 2.50814ZM113.284 253.916C100.314 156.73 90.7815 100.612 73.5494 1.92213L72.5643 2.09414C89.7956 100.779 99.3252 156.882 112.293 254.048L113.284 253.916ZM112.765 254.481C128.802 255.254 143.927 256.627 157.671 258.495L157.806 257.505C144.031 255.632 128.876 254.256 112.813 253.482L112.765 254.481ZM127.989 78.9085C139.256 137.403 148.825 187.076 157.242 258.059L158.235 257.941C149.813 186.919 140.239 137.216 128.971 78.7194L127.989 78.9085Z" fill="#E60814"/>
</g>
<defs>
<filter id="filter0_d_2_54" x="13.6992" y="162.253" width="130.774" height="45.5843" filterUnits="userSpaceOnUse" color-interpolation-filters="sRGB">
<feFlood flood-opacity="0" result="BackgroundImageFix"/>
<feColorMatrix in="SourceAlpha" type="matrix" values="0 0 0 0 0 0 0 0 0 0 0 0 0 0 0 0 0 0 127 0" result="hardAlpha"/>
<feOffset dy="4"/>
<feGaussianBlur stdDeviation="2"/>
<feComposite in2="hardAlpha" operator="out"/>
<feColorMatrix type="matrix" values="0 0 0 0 0 0 0 0 0 0 0 0 0 0 0 0 0 0 0.25 0"/>
<feBlend mode="normal" in2="BackgroundImageFix" result="effect1_dropShadow_2_54"/>
<feBlend mode="normal" in="SourceGraphic" in2="effect1_dropShadow_2_54" result="shape"/>
</filter>
<filter id="filter1_b_2_54" x="-3.3427" y="-2.51318" width="90.5207" height="266.102" filterUnits="userSpaceOnUse" color-interpolation-filters="sRGB">
<feFlood flood-opacity="0" result="BackgroundImageFix"/>
<feGaussianBlur in="BackgroundImageFix" stdDeviation="2"/>
<feComposite in2="SourceAlpha" operator="in" result="effect1_backgroundBlur_2_54"/>
<feBlend mode="normal" in="SourceGraphic" in2="effect1_backgroundBlur_2_54" result="shape"/>
</filter>
<filter id="filter2_ddd_2_54" x="68.462" y="1.50806" width="93.8487" height="265.074" filterUnits="userSpaceOnUse" color-interpolation-filters="sRGB">
<feFlood flood-opacity="0" result="BackgroundImageFix"/>
<feColorMatrix in="SourceAlpha" type="matrix" values="0 0 0 0 0 0 0 0 0 0 0 0 0 0 0 0 0 0 127 0" result="hardAlpha"/>
<feOffset dy="4"/>
<feGaussianBlur stdDeviation="2"/>
<feComposite in2="hardAlpha" operator="out"/>
<feColorMatrix type="matrix" values="0 0 0 0 0 0 0 0 0 0 0 0 0 0 0 0 0 0 0.25 0"/>
<feBlend mode="normal" in2="BackgroundImageFix" result="effect1_dropShadow_2_54"/>
<feColorMatrix in="SourceAlpha" type="matrix" values="0 0 0 0 0 0 0 0 0 0 0 0 0 0 0 0 0 0 127 0" result="hardAlpha"/>
<feOffset dy="4"/>
<feGaussianBlur stdDeviation="2"/>
<feComposite in2="hardAlpha" operator="out"/>
<feColorMatrix type="matrix" values="0 0 0 0 0 0 0 0 0 0 0 0 0 0 0 0 0 0 0.25 0"/>
<feBlend mode="normal" in2="effect1_dropShadow_2_54" result="effect2_dropShadow_2_54"/>
<feColorMatrix in="SourceAlpha" type="matrix" values="0 0 0 0 0 0 0 0 0 0 0 0 0 0 0 0 0 0 127 0" result="hardAlpha"/>
<feOffset dy="4"/>
<feGaussianBlur stdDeviation="2"/>
<feComposite in2="hardAlpha" operator="out"/>
<feColorMatrix type="matrix" values="0 0 0 0 0 0 0 0 0 0 0 0 0 0 0 0 0 0 0.25 0"/>
<feBlend mode="normal" in2="effect2_dropShadow_2_54" result="effect3_dropShadow_2_54"/>
<feBlend mode="normal" in="SourceGraphic" in2="effect3_dropShadow_2_54" result="shape"/>
</filter>
</defs>
</svg>

<svg xmlns="http://www.w3.org/2000/svg" width="163" height="267" fill="none"><g filter="url(#a)"><path fill="#B1060E" d="M17.699 162.253h122.774v37.584H17.699z"/></g><g filter="url(#b)"><path fill="#B1060E" fill-rule="evenodd" d="M1.246 259C15.492 158.949 25.428 102.11 45.797 2.01l36.784-.023c-17.64 99.183-26.525 155.807-39.663 252.997-14.92.838-28.934 2.206-41.672 4.016Z" clip-rule="evenodd"/><path fill="#B0060E" d="M45.797 2.01v-.5h-.409l-.081.4.49.1ZM1.247 259l-.496-.07-.094.659.66-.094-.07-.495ZM82.58 1.987l.492.088.105-.588h-.597v.5ZM42.918 254.984l.028.499.412-.023.055-.409-.495-.067ZM45.307 1.911C24.937 102.019 14.999 158.868.751 258.93l.99.14C15.986 159.03 25.921 102.2 46.287 2.11l-.98-.2Zm37.274-.424-36.784.023v1l36.785-.023-.001-1ZM43.413 255.051c13.138-97.183 22.02-153.8 39.66-252.976L82.09 1.9c-17.642 99.189-26.527 155.82-39.667 253.017l.991.134Zm-42.097 4.444c12.723-1.808 26.722-3.175 41.63-4.012l-.056-.998c-14.933.838-28.96 2.208-41.714 4.02l.14.99Z"/></g><g fill="#E60814" filter="url(#c)"><path fill-rule="evenodd" d="M128.48 78.814c-4.532-23.524-9.338-48.473-14.453-76.806h-40.97c17.231 98.687 26.763 154.798 39.732 251.974 16.05.773 31.19 2.148 44.949 4.018-8.419-71.002-17.99-120.69-29.258-179.186Z" clip-rule="evenodd"/><path d="m114.027 2.008.492-.089-.074-.41h-.418v.5Zm14.453 76.806-.491.095.491-.095ZM73.057 2.008v-.5h-.595l.102.586.493-.086Zm39.732 251.974-.496.066.055.413.417.02.024-.499ZM157.738 258l-.067.495.64.087-.076-.641-.497.059ZM113.535 2.097c5.116 28.336 9.922 53.287 14.454 76.812l.982-.19c-4.532-23.524-9.337-48.47-14.452-76.8l-.984.178Zm-40.478.411h40.97v-1h-40.97v1Zm40.227 251.408C100.314 156.73 90.781 100.612 73.549 1.922l-.985.172c17.232 98.685 26.761 154.788 39.729 251.954l.991-.132Zm-.519.565c16.037.773 31.162 2.146 44.906 4.014l.135-.99c-13.775-1.873-28.93-3.249-44.993-4.023l-.048.999Zm15.224-175.572c11.267 58.494 20.836 108.167 29.253 179.15l.993-.118c-8.422-71.022-17.996-120.725-29.264-179.222l-.982.19Z"/></g><defs><filter id="a" width="130.774" height="45.584" x="13.699" y="162.253" color-interpolation-filters="sRGB" filterUnits="userSpaceOnUse"><feFlood flood-opacity="0" result="BackgroundImageFix"/><feColorMatrix in="SourceAlpha" result="hardAlpha" values="0 0 0 0 0 0 0 0 0 0 0 0 0 0 0 0 0 0 127 0"/><feOffset dy="4"/><feGaussianBlur stdDeviation="2"/><feComposite in2="hardAlpha" operator="out"/><feColorMatrix values="0 0 0 0 0 0 0 0 0 0 0 0 0 0 0 0 0 0 0.25 0"/><feBlend in2="BackgroundImageFix" result="effect1_dropShadow_2_54"/><feBlend in="SourceGraphic" in2="effect1_dropShadow_2_54" result="shape"/></filter><filter id="b" width="90.521" height="266.102" x="-3.343" y="-2.513" color-interpolation-filters="sRGB" filterUnits="userSpaceOnUse"><feFlood flood-opacity="0" result="BackgroundImageFix"/><feGaussianBlur in="BackgroundImageFix" stdDeviation="2"/><feComposite in2="SourceAlpha" operator="in" result="effect1_backgroundBlur_2_54"/><feBlend in="SourceGraphic" in2="effect1_backgroundBlur_2_54" result="shape"/></filter><filter id="c" width="93.849" height="265.074" x="68.462" y="1.508" color-interpolation-filters="sRGB" filterUnits="userSpaceOnUse"><feFlood flood-opacity="0" result="BackgroundImageFix"/><feColorMatrix in="SourceAlpha" result="hardAlpha" values="0 0 0 0 0 0 0 0 0 0 0 0 0 0 0 0 0 0 127 0"/><feOffset dy="4"/><feGaussianBlur stdDeviation="2"/><feComposite in2="hardAlpha" operator="out"/><feColorMatrix values="0 0 0 0 0 0 0 0 0 0 0 0 0 0 0 0 0 0 0.25 0"/><feBlend in2="BackgroundImageFix" result="effect1_dropShadow_2_54"/><feColorMatrix in="SourceAlpha" result="hardAlpha" values="0 0 0 0 0 0 0 0 0 0 0 0 0 0 0 0 0 0 127 0"/><feOffset dy="4"/><feGaussianBlur stdDeviation="2"/><feComposite in2="hardAlpha" operator="out"/><feColorMatrix values="0 0 0 0 0 0 0 0 0 0 0 0 0 0 0 0 0 0 0.25 0"/><feBlend in2="effect1_dropShadow_2_54" result="effect2_dropShadow_2_54"/><feColorMatrix in="SourceAlpha" result="hardAlpha" values="0 0 0 0 0 0 0 0 0 0 0 0 0 0 0 0 0 0 127 0"/><feOffset dy="4"/><feGaussianBlur stdDeviation="2"/><feComposite in2="hardAlpha" operator="out"/><feColorMatrix values="0 0 0 0 0 0 0 0 0 0 0 0 0 0 0 0 0 0 0.25 0"/><feBlend in2="effect2_dropShadow_2_54" result="effect3_dropShadow_2_54"/><feBlend in="SourceGraphic" in2="effect3_dropShadow_2_54" result="shape"/></filter></defs></svg>
